X:1
T:Is It Nothing to You?
T:Is It Nothing to You?
T:John Robson Sweney
T:Myron W. Morse & Fanny Crosby, 1894
T:Public Domain Courtesy of the Cyber Hymnal™
T:Public Domain Courtesy of the Cyber Hymnal™
C:John Robson Sweney
Z:Public Domain
Z:Courtesy of the Cyber Hymnal™
%%score ( 1 2 ) ( 3 4 )
L:1/8
Q:1/4=80
M:6/8
K:G
V:1 treble 
V:2 treble 
V:3 bass 
V:4 bass 
V:1
 (G/A/) | [GB]>[GB][GB] [DA][DG]D | [CE]>[CG][CG] [B,G]2 [DG]/[DG]/ | %3
w: 1.~Our *|bless- èd Re- deem- er is|pass- ing this way; Is it|
w: 2.~The *|Mas- ter is call- ing, oh|list to His voice, Is it|
w: 3.~Yon *|re- gion so love- ly, where|all will be song, Is it|
 [DF]<[FA][FA] [FA]2 [DA]/[DA]/ | [DG]<[GB][GB] [GB]2 (G/A/) | [GB]>[GB][GB] [DA][DG]D | %6
w: no- thing to you, is it|no- thing to you? Oh, *|hear Him this mo- ment so|
w: no- thing to you, is it|no- thing to you? A- *|wake from your slum- ber, be-|
w: no- thing to you, is it|no- thing to you? The *|Sav- ior’s glad wel- come, the|
 [CE]>[CG][CG] [B,G]2 [GB]/[GB]/ | [FA]<[FA][Fc]/[Fc]/ [GB]<[GB][FA] | G3- G2 [DG]/[DG]/ | %9
w: ten- der- ly say, “Is it|no- thing, is it no- thing to|you?” * There is|
w: lieve and re- joice, Is it|no- thing, is it no- thing to|you? * Th- e|
w: glor- i- fied throng, Are they|no- thing, are they no- thing to|you? * Th- e|
 [FA]>[FA][FA] [Fd]2 [FA]/[FA]/ | [GB]>[G^A][GB] G2 [DG]/[DG]/ | [FA]>[FA][FA] [Fd]2 [DF]/[DF]/ | %12
w: life for a look at the|cru- ci- fied One, There is|life for a look at the|
w: sands of your life are fast|pass- ing a- way, O- h,|haste, quick- ly haste, ere the|
w: an- gels are there, bro- ther,|where will you be? ’Ti- s|time that you halt- ed on|
 [^CA][CG][CE] !fermata!D2 (G/A/) | [GB]>[GB][GB] [DA][DG]D | [CE]>[CG][CG] [B,G]2 [GB]/[GB]/ | %15
w: Fa- ther’s own Son; Oh, *|hast- en just now, to the|dear Sav- ior come; Is it|
w: close of the day; Re- *|pent and re- ceive Him, oh,|do not de- lay, Make it|
w: life’s rest- less sea, And *|set- tled this quest- ion: “Did|Christ die for me?” Is it|
 [FA]<[FA][Fc]/[Fc]/ [GB]<[GB][FA] | G3- G2 |] %17
w: no- thing, is it no- thing to|you? *|
w: some- thing, make it some- thing to|you. *|
w: no- thing, is it no- thing to|you? *|
V:2
 G | x5 D | x6 | x6 | x5 G | x5 D | x6 | x6 | G3- G2 x | x6 | x3 G2 x | x6 | x3 D2 G | x5 D | x6 | %15
 x6 | G3- G2 |] %17
V:3
 (B,/C/) | [G,D]>[G,D][G,D] [G,C][G,B,][B,,G,] | [C,G,]>[C,E,][C,E,] [G,,D,]2 [G,B,]/[G,B,]/ | %3
 [D,A,]<[D,C][D,C] [D,C]2 [F,C]/[F,C]/ | [G,B,]<[G,D][G,D] [G,D]2 (B,/C/) | %5
 [G,D]>[G,D][G,D] [G,C][G,B,][B,,G,] | [C,G,]>[C,E,][C,E,] [G,,D,]2 [G,D]/[G,D]/ | %7
 [D,D]<[D,D][D,A,]/[D,A,]/ [D,D]<[D,D][D,C] | [G,B,]3- [G,B,]2 [G,B,]/[G,B,]/ | %9
 [D,D]>[D,D][D,D] [D,A,]2 [D,D]/[D,D]/ | [G,D]>[G,^C][G,D] [G,B,]2 [G,B,]/[G,B,]/ | %11
 [D,D]>[D,D][D,D] [D,A,]2 [D,A,]/[D,A,]/ | [A,,A,][A,,E,][A,,G,] (F,C) (B,/C/) | %13
 [G,D]>[G,D][G,D] [G,C][G,B,][B,,G,] | [C,G,]>[C,E,][C,E,] [G,,D,]2 [G,D]/[G,D]/ | %15
 [D,D]<[D,D][D,A,]/[D,A,]/ [D,D]<[D,D][D,C] | [G,B,]3- [G,B,]2 |] %17
V:4
 G, | x6 | x6 | x6 | x5 G, | x6 | x6 | x6 | x6 | x6 | x6 | x6 | x3 D,2 G, | x6 | x6 | x6 | x5 |] %17

